X:374
T: MAEDELS SAGT ES LAUT
N: B0447
O: Europa, Mitteleuropa, Deutschland
R: Liebes - Ehestands - Lied
M: 2/4
L: 1/16
K: C
 | C2C2C2C2 | E4C2z2 |
A,2A,2B,2B,2 | D4C2z2 |
E2E2E2E2 | D3B,G,2z2 |
C2C2C2C2 | C3B,B,4 |
C2C2C2G,2 | ^G,4A,2z2 |
=G,2C2EDCB, | C4z4

@@@ Tune index: 2177
